_includes/icons/color-heart-balloon.svg

<svg fill="#666" height="50" viewBox="0 0 48 48" width="50" xmlns="http://www.w3.org/2000/svg"><path d="m24.3 46.1-1.3-1.5s1-.9 1-2.6c0-.5-.4-1-.8-1.5-.5-.7-1.2-1.7-1.2-2.9 0-.8.2-1.5.5-2.2s.5-1.4.5-2.4h2c0 1.4-.4 2.4-.6 3.1-.2.5-.4 1-.4 1.5 0 .6.4 1.1.8 1.7.6.7 1.2 1.6 1.2 2.7 0 2.6-1.6 4-1.7 4.1z" fill="#b0bec5"/><path d="m26 34h-1l-1 1-1-1h-1l1-4h2z" fill="#c51162"/><path d="m30.1 2c-2.3 0-4.4.8-6.1 2.1-1.7-1.3-3.8-2.1-6.1-2.1-5.5 0-9.9 4.5-9.9 10 0 8 11 17 16 19 4.9-2 16-10.9 16-19 0-5.5-4.4-10-9.9-10z" fill="#ff4081"/><path d="m17.9 6c1.3 0 2.6.4 3.6 1.3l2.5 2 2.5-2c1-.9 3.2-1.3 4.5-1.3 3.6 0 3.5.3 5.7 1.6-1.4-2.2-3.9-3.6-6.6-3.6-1.8 0-3.4.6-4.9 1.7l-1.2 1-1.2-1c-1.4-1.1-3.1-1.7-4.9-1.7-4.4 0-7.9 3.6-7.9 8 0 3.1 2.1 6.5 4.8 9.5-1.7-2.4-2.8-5.5-2.8-9.5 0-3.3 2.6-6 5.9-6z" fill="#fce4ec"/></svg>

<svg xmlns="http://www.w3.org/2000/svg" viewBox="0 0 48 48" width="50" height="50" fill="#666"><path d="M24.3,46.1L23,44.6c0,0,1-0.9,1-2.6c0-0.5-0.4-1-0.8-1.5c-0.5-0.7-1.2-1.7-1.2-2.9 c0-0.8,0.2-1.5,0.5-2.2c0.3-0.7,0.5-1.4,0.5-2.4h2c0,1.4-0.4,2.4-0.6,3.1c-0.2,0.5-0.4,1-0.4,1.5c0,0.6,0.4,1.1,0.8,1.7 C25.4,40,26,40.9,26,42C26,44.6,24.4,46,24.3,46.1z" fill="#b0bec5"/><path d="M26,34h-1l-1,1l-1-1h-1l1-4h2L26,34z" fill="#c51162"/><path d="M30.1,2c-2.3,0-4.4,0.8-6.1,2.1C22.3,2.8,20.2,2,17.9,2C12.4,2,8,6.5,8,12C8,20,19,29,24,31 c4.9-2,16-10.9,16-19C40,6.5,35.6,2,30.1,2z" fill="#ff4081"/><path d="M17.9,6c1.3,0,2.6,0.4,3.6,1.3l2.5,2l2.5-2C27.5,6.4,29.7,6,31,6c3.6,0,3.5,0.3,5.7,1.6 C35.3,5.4,32.8,4,30.1,4c-1.8,0-3.4,0.6-4.9,1.7l-1.2,1l-1.2-1C21.4,4.6,19.7,4,17.9,4C13.5,4,10,7.6,10,12c0,3.1,2.1,6.5,4.8,9.5 C13.1,19.1,12,16,12,12C12,8.7,14.6,6,17.9,6z" fill="#fce4ec"/></svg>
